src/1-subject/sit-side-handle-smartphone.svg

<svg width="1300" height="1000" viewBox="0 0 1300 1000" fill="none" xmlns="http://www.w3.org/2000/svg"><path d="m591.5 872.192 16.376 8.635a20 20 0 0 1 10.659 18.432l-.035.933h-134v-18c-3.73 0-6.629-3.248-6.205-6.954l1.205-10.546 15-112.5-103.915-35.451c-16.197-5.525-27.085-20.743-27.085-37.857v-34.192l-11.5-3.5s15.325-92.872 22.5-113.5c12-34.5 34.184-57.414 73-50.5 9.043 1.611 15.313 17.857 20.625 31.308.752 1.904 33.875 40 33.875 40l53-40 16-27.001s8.5-10.236 18.5-5.5c9.5 4.5 6.5 14.501 6.5 14.501-2.459 10.327-13.624 35.241-12.088 34.556L584 525a.448.448 0 0 1-.088.056C578.263 528.795 501.5 601.5 501.5 601.5l-23.096-19c1.539 21.565 2.096 42.449 2.096 58.192l21.125 7.303A28.776 28.776 0 0 1 521 675.192l51.215 13.884c18.464 5.005 30.799 22.383 29.432 41.465L591.5 872.192Z" fill="#fff"/><path d="m605.291 886.65-20.791-8.516 12.037-150.571c1.141-14.274-7.966-27.365-21.746-31.26L483.5 670.504l74.821 50.977a30 30 0 0 1 12.604 30.271L548 875.193l17.227 6.176a15 15 0 0 1 9.907 13.155l.366 5.669h36v-4.289a10 10 0 0 0-6.209-9.254Z" fill="#000"/><path d="M564.209 887.235 543 877.203l22.385-123.08a29.999 29.999 0 0 0-12.325-29.954L473 668.194l-102.5-23v35.72c0 12.746 8.054 24.1 20.083 28.314l111.245 38.965-17.075 123.561a4.793 4.793 0 0 0 4.747 5.449v23.009H570l-.068-4.105a10 10 0 0 0-5.723-8.872Zm-177.71-371.542C372.592 545.67 360.5 639.194 360.5 639.194l111.5 24 41.181 10.413a1.42 1.42 0 0 0 1.723-1.73 28.398 28.398 0 0 0-18.833-19.969L472 644.194l-63-24.001 9.311-63.615a1.512 1.512 0 0 1 3 .388l-6.811 60.728 60.5 21.5c0-99.742-14.203-137.982-20.981-150.552-2.018-3.744-5.555-6.207-9.734-7-12.43-2.357-40.63-2.927-57.786 34.051Z" fill="#000"/><path d="M425.384 474.713c3.975 1.333 11.319 1.601 13.237 1.539 0 0 8.639-.374 13.605-2.476 5.595-2.369 8.681-4.6 12.348-9.397 2.505-3.278 4.356-8.854 5.167-11.607.321-1.089.53-2.201.68-3.326l3.391-25.454s.388-3.665.297-6.014c-.215-5.587-1.086-8.842-3.527-13.886-2.508-5.18-4.638-7.925-9.029-11.692-4.68-4.015-8.011-5.724-13.952-7.485-4.612-1.368-7.41-1.735-12.225-1.607-5.161.356-7.073.748-11.951 2.451-4.877 1.82-9.814 4.916-13.529 8.445-3.715 3.53-6.258 7.643-8.191 12.294-1.933 4.65-2.723 9.102-2.55 14.097.066 1.884.352 4.127.716 5.979l5.953 24.8a24.324 24.324 0 0 0 1.131 3.568c1.171 2.854 3.644 8.481 5.96 11.201 3.179 3.732 7.714 6.975 12.469 8.57Z" fill="#fff"/><path d="M427.291 468.901c3.341 1.165 9.511 1.407 11.122 1.355 0 0 7.256-.317 11.426-2.142 4.698-2.058 7.287-3.997 10.363-8.171 2.053-2.788 3.579-7.489 4.281-9.938.302-1.056.497-2.137.635-3.226l2.8-22s.322-3.191.243-5.238c-.187-4.866-.921-7.701-2.978-12.097-2.112-4.514-3.905-6.907-7.597-10.192-3.935-3.502-6.736-4.994-11.728-6.535-3.876-1.196-6.227-1.519-10.272-1.412-4.334.304-5.94.643-10.036 2.121-4.095 1.58-8.239 4.271-11.356 7.341-3.117 3.07-5.249 6.65-6.867 10.698-1.619 4.048-2.278 7.925-2.127 12.275.057 1.641.3 3.595.608 5.208l4.985 21.424c.275 1.18.617 2.342 1.067 3.468 1.013 2.537 3.045 7.268 4.948 9.584 2.675 3.254 6.488 6.083 10.483 7.477Zm41.749 46.996-.04-.047a.511.511 0 0 1 .04.047l32.46 37.953L559 511.5l14-24.5c1.5-2.333 6-9.65 13.5-7.65 9 2.4 5.5 11.334 4 16l-10 25.5-79 74-23.5-20c-1.653-17.522-7.307-56.752-8.96-58.953Z" fill="#000"/><rect x="567.367" y="443" width="45" height="77" rx="5" transform="rotate(4.744 567.367 443)" fill="#000"/><rect x="571.937" y="448.396" width="35" height="67" rx="2" transform="rotate(4.744 571.937 448.396)" fill="#fff"/><path fill="#000" d="m574.43 454.623 28.9 2.398-4.217 50.825-28.9-2.398z"/></svg>

<svg width="1300" height="1000" viewBox="0 0 1300 1000" fill="none" xmlns="http://www.w3.org/2000/svg">
<path d="M591.5 872.192L607.876 880.827C614.676 884.412 618.819 891.577 618.535 899.259L618.5 900.192H484.5V882.192C480.77 882.192 477.871 878.944 478.295 875.238L479.5 864.692L494.5 752.192L390.585 716.741C374.388 711.216 363.5 695.998 363.5 678.884V644.692L352 641.192C352 641.192 367.325 548.32 374.5 527.692C386.5 493.192 408.684 470.278 447.5 477.192C456.543 478.803 462.813 495.049 468.125 508.5C468.877 510.404 502 548.5 502 548.5L555 508.5L571 481.499C571 481.499 579.5 471.263 589.5 475.999C599 480.499 596 490.5 596 490.5C593.541 500.827 582.376 525.741 583.912 525.056C583.944 525.035 583.973 525.016 584 525C583.967 525.026 583.938 525.044 583.912 525.056C578.263 528.795 501.5 601.5 501.5 601.5L478.404 582.5C479.943 604.065 480.5 624.949 480.5 640.692L501.625 647.995C513.221 652.003 521 662.923 521 675.192L572.215 689.076C590.679 694.081 603.014 711.459 601.647 730.541L591.5 872.192Z" fill="white"/>
<path d="M605.291 886.65L584.5 878.134L596.537 727.563C597.678 713.289 588.571 700.198 574.791 696.303L483.5 670.504L558.321 721.481C568.153 728.18 573.098 740.055 570.925 751.752L548 875.193L565.227 881.369C570.856 883.387 574.749 888.556 575.134 894.524L575.5 900.193H611.5V895.904C611.5 891.845 609.047 888.188 605.291 886.65Z" fill="black"/>
<path d="M564.209 887.235L543 877.203L565.385 754.123C567.483 742.588 562.669 730.887 553.06 724.169L473 668.194L370.5 645.194V680.914C370.5 693.66 378.554 705.014 390.583 709.228L501.828 748.193L484.753 871.754C484.355 874.634 486.593 877.203 489.5 877.203V900.212H570L569.932 896.107C569.868 892.302 567.65 888.862 564.209 887.235Z" fill="black"/>
<path d="M386.499 515.693C372.592 545.67 360.5 639.194 360.5 639.194L472 663.194L513.181 673.607C514.226 673.871 515.173 672.921 514.904 671.877C512.474 662.427 505.362 654.887 496.071 651.908L472 644.194L409 620.193L418.311 556.578C418.42 555.835 419.057 555.285 419.808 555.285C420.71 555.285 421.411 556.069 421.311 556.966L414.5 617.694L475 639.194C475 539.452 460.797 501.212 454.019 488.642C452.001 484.898 448.464 482.435 444.285 481.642C431.855 479.285 403.655 478.715 386.499 515.693Z" fill="black"/>
<path d="M425.384 474.713C429.359 476.046 436.703 476.314 438.621 476.252C438.621 476.252 447.26 475.878 452.226 473.776C457.821 471.407 460.907 469.176 464.574 464.379C467.079 461.101 468.93 455.525 469.741 452.772C470.062 451.683 470.271 450.571 470.421 449.446L473.812 423.992C473.812 423.992 474.2 420.327 474.109 417.978C473.894 412.391 473.023 409.136 470.582 404.092C468.074 398.912 465.944 396.167 461.553 392.4C456.873 388.385 453.542 386.676 447.601 384.915C442.989 383.547 440.191 383.18 435.376 383.308C430.215 383.664 428.303 384.056 423.425 385.759C418.548 387.579 413.611 390.675 409.896 394.204C406.181 397.734 403.638 401.847 401.705 406.498C399.772 411.148 398.982 415.6 399.155 420.595C399.221 422.479 399.507 424.722 399.871 426.574L405.824 451.374C406.116 452.59 406.48 453.785 406.955 454.942C408.126 457.796 410.599 463.423 412.915 466.143C416.094 469.875 420.629 473.118 425.384 474.713Z" fill="white"/>
<path d="M427.291 468.901C430.632 470.066 436.802 470.308 438.413 470.256C438.413 470.256 445.669 469.939 449.839 468.114C454.537 466.056 457.126 464.117 460.202 459.943C462.255 457.155 463.781 452.454 464.483 450.005C464.785 448.949 464.98 447.868 465.118 446.779L467.918 424.779C467.918 424.779 468.24 421.588 468.161 419.541C467.974 414.675 467.24 411.84 465.183 407.444C463.071 402.93 461.278 400.537 457.586 397.252C453.651 393.75 450.85 392.258 445.858 390.717C441.982 389.521 439.631 389.198 435.586 389.305C431.252 389.609 429.646 389.948 425.55 391.426C421.455 393.006 417.311 395.697 414.194 398.767C411.077 401.837 408.945 405.417 407.327 409.465C405.708 413.513 405.049 417.39 405.2 421.74C405.257 423.381 405.5 425.335 405.808 426.948L410.793 448.372C411.068 449.552 411.41 450.714 411.86 451.84C412.873 454.377 414.905 459.108 416.808 461.424C419.483 464.678 423.296 467.507 427.291 468.901Z" fill="black"/>
<path d="M469.04 515.897L469 515.85C469.013 515.863 469.026 515.879 469.04 515.897L501.5 553.85L559 511.5L573 487C574.5 484.667 579 477.35 586.5 479.35C595.5 481.75 592 490.684 590.5 495.35L580.5 520.85L501.5 594.85L478 574.85C476.347 557.328 470.693 518.098 469.04 515.897Z" fill="black"/>
<rect x="567.367" y="443" width="45" height="77" rx="5" transform="rotate(4.74352 567.367 443)" fill="black"/>
<rect x="571.937" y="448.396" width="35" height="67" rx="2" transform="rotate(4.74352 571.937 448.396)" fill="white"/>
<rect x="574.43" y="454.623" width="29" height="51" transform="rotate(4.74352 574.43 454.623)" fill="black"/>
</svg>
